dist/img/svg/logo.svg

<svg width="158" height="33" viewBox="0 0 158 33" fill="none" xmlns="http://www.w3.org/2000/svg">
<path d="M4.5 21.1786V6.19995H6.78V21.1786H4.5Z" fill="#2A2A2A" stroke="#2A2A2A"/>
<path d="M19.4099 8.09332H13.5515V6.19995H28.5003V8.24103H22.6859H22.1859V8.74103V21.1699H19.9099V8.59332V8.09332H19.4099Z" fill="#2A2A2A" stroke="#2A2A2A"/>
<mask id="path-3-inside-1_3_15" fill="white">
<path d="M48.1283 5.69995V9.07989H37.3666C36.2922 9.07989 36.0984 9.95746 36.0984 10.7308C36.0984 11.5041 36.53 12.0254 37.4106 12.0254H46.2173C48.8064 12.0254 48.9561 15.0143 48.9561 16.8563C48.9561 18.6984 48.9561 21.9219 46.3141 21.9219H33.7383V18.1597H44.2534C45.865 18.1597 45.6272 17.5775 45.6272 16.8563C45.6272 16.1352 45.5568 15.5791 44.6937 15.5791H37.7981C35.1561 15.5791 32.8047 13.8153 32.8047 10.0965C32.8047 8.41085 34.3723 5.77815 37.1817 5.77815"/>
</mask>
<path d="M48.1283 5.69995V9.07989H37.3666C36.2922 9.07989 36.0984 9.95746 36.0984 10.7308C36.0984 11.5041 36.53 12.0254 37.4106 12.0254H46.2173C48.8064 12.0254 48.9561 15.0143 48.9561 16.8563C48.9561 18.6984 48.9561 21.9219 46.3141 21.9219H33.7383V18.1597H44.2534C45.865 18.1597 45.6272 17.5775 45.6272 16.8563C45.6272 16.1352 45.5568 15.5791 44.6937 15.5791H37.7981C35.1561 15.5791 32.8047 13.8153 32.8047 10.0965C32.8047 8.41085 34.3723 5.77815 37.1817 5.77815" fill="#2A2A2A"/>
<path d="M48.1283 9.07989V10.0799H49.1283V9.07989H48.1283ZM33.7383 21.9219H32.7383V22.9219H33.7383V21.9219ZM33.7383 18.1597V17.1597H32.7383V18.1597H33.7383ZM47.1283 5.69995V9.07989H49.1283V5.69995H47.1283ZM48.1283 8.07989H37.3666V10.0799H48.1283V8.07989ZM37.3666 8.07989C36.4953 8.07989 35.8365 8.47028 35.4639 9.11479C35.1457 9.6652 35.0984 10.2972 35.0984 10.7308H37.0984C37.0984 10.5758 37.1084 10.4399 37.1292 10.3266C37.1502 10.2116 37.1775 10.1467 37.1953 10.1159C37.2032 10.1022 37.2077 10.098 37.2068 10.0988C37.2065 10.0991 37.2057 10.1 37.2043 10.101C37.203 10.102 37.2021 10.1025 37.2021 10.1025C37.2021 10.1025 37.2041 10.1014 37.2086 10.0997C37.2131 10.0979 37.2211 10.0952 37.2332 10.0924C37.2575 10.0867 37.3002 10.0799 37.3666 10.0799V8.07989ZM35.0984 10.7308C35.0984 11.2973 35.2584 11.8977 35.703 12.3607C36.1546 12.831 36.7708 13.0254 37.4106 13.0254V11.0254C37.288 11.0254 37.2166 11.0072 37.1819 10.9943C37.1648 10.9879 37.1554 10.9825 37.1513 10.9798C37.1473 10.9773 37.146 10.9758 37.1456 10.9754C37.1452 10.975 37.1432 10.973 37.1401 10.9677C37.1369 10.9623 37.1313 10.9517 37.1252 10.934C37.1128 10.8978 37.0984 10.8326 37.0984 10.7308H35.0984ZM37.4106 13.0254H46.2173V11.0254H37.4106V13.0254ZM46.2173 13.0254C46.657 13.0254 46.9223 13.1464 47.1048 13.2955C47.303 13.4576 47.479 13.716 47.6196 14.0966C47.9116 14.8871 47.9561 15.9285 47.9561 16.8563H49.9561C49.9561 15.9422 49.9258 14.5681 49.4957 13.4036C49.2752 12.8067 48.9283 12.2028 48.3703 11.7468C47.7965 11.278 47.0721 11.0254 46.2173 11.0254V13.0254ZM47.9561 16.8563C47.9561 17.8116 47.9476 18.9151 47.6731 19.7762C47.5405 20.1922 47.3689 20.4712 47.1763 20.6428C47.0045 20.7959 46.7524 20.9219 46.3141 20.9219V22.9219C47.1969 22.9219 47.9356 22.645 48.5067 22.1361C49.0572 21.6457 49.381 21.0038 49.5787 20.3836C49.9647 19.1724 49.9561 17.7431 49.9561 16.8563H47.9561ZM46.3141 20.9219H33.7383V22.9219H46.3141V20.9219ZM34.7383 21.9219V18.1597H32.7383V21.9219H34.7383ZM33.7383 19.1597H44.2534V17.1597H33.7383V19.1597ZM44.2534 19.1597C44.7011 19.1597 45.1072 19.1212 45.4546 19.0092C45.825 18.8899 46.1748 18.6702 46.4012 18.2945C46.6091 17.9496 46.6351 17.5953 46.639 17.3828C46.6411 17.2715 46.6367 17.1617 46.6335 17.0799C46.6299 16.9895 46.6272 16.9228 46.6272 16.8563H44.6272C44.6272 16.9702 44.6319 17.0795 44.6351 17.1589C44.6386 17.247 44.6402 17.301 44.6394 17.3457C44.6375 17.4452 44.6223 17.3716 44.6881 17.2624C44.7242 17.2024 44.7695 17.1566 44.8107 17.1269C44.8478 17.1 44.8656 17.0978 44.8412 17.1056C44.78 17.1254 44.6115 17.1597 44.2534 17.1597V19.1597ZM46.6272 16.8563C46.6272 16.5321 46.628 15.9542 46.3612 15.467C46.2065 15.1845 45.9708 14.9413 45.6476 14.7812C45.341 14.6293 45.0106 14.5791 44.6937 14.5791V16.5791C44.8084 16.5791 44.8104 16.5984 44.7597 16.5733C44.7326 16.5599 44.7002 16.5384 44.6691 16.5079C44.6384 16.4779 44.6185 16.4486 44.607 16.4276C44.5878 16.3926 44.5998 16.395 44.6112 16.4823C44.6225 16.5684 44.6272 16.6847 44.6272 16.8563H46.6272ZM44.6937 14.5791H37.7981V16.5791H44.6937V14.5791ZM37.7981 14.5791C36.6977 14.5791 35.7159 14.2139 35.013 13.5205C34.3177 12.8345 33.8047 11.7374 33.8047 10.0965H31.8047C31.8047 12.1743 32.4675 13.8186 33.6084 14.9442C34.7417 16.0624 36.2565 16.5791 37.7981 16.5791V14.5791ZM33.8047 10.0965C33.8047 9.52227 34.0906 8.66732 34.6997 7.95514C35.2876 7.26771 36.1189 6.77815 37.1817 6.77815V4.77815C35.435 4.77815 34.0779 5.60494 33.1797 6.65527C32.3026 7.68084 31.8047 8.98506 31.8047 10.0965H33.8047Z" fill="#2A2A2A" mask="url(#path-3-inside-1_3_15)"/>
<path d="M74.198 6.19116V8.51028H62.5624C61.7907 8.51028 61.2474 8.73534 60.9838 9.23709C60.8675 9.45828 60.8335 9.68754 60.8224 9.87085C60.8149 9.99437 60.8175 10.1358 60.8194 10.2412C60.8201 10.2797 60.8207 10.3134 60.8207 10.3397V16.7433C60.8207 17.3388 60.887 17.8871 61.118 18.2989C61.2398 18.5159 61.4096 18.6993 61.6364 18.8245C61.8606 18.9482 62.1104 18.9984 62.3687 18.9984H71.1665H71.6665V18.4984V15.327V14.827H71.1665H68.3552V12.6035H74.1892V21.4305H62.4567C61.2141 21.4305 60.22 20.8949 59.5308 20.2062C58.8232 19.4991 58.4918 18.6892 58.4918 18.2117V8.87995C58.4918 8.36015 58.8377 7.69391 59.554 7.13584C60.2564 6.5886 61.2644 6.19116 62.4567 6.19116H74.198Z" fill="#2A2A2A" stroke="#2A2A2A"/>
<path d="M81.1905 17.1865V21.4132H78.5709V6.19995H90.7437C91.5029 6.19995 92.1808 6.6712 92.6958 7.3441C93.2176 8.0258 93.4757 8.79027 93.4757 9.17547V13.4851C93.4757 13.9818 93.2978 14.6141 92.737 15.1263C92.1753 15.6393 91.1685 16.087 89.4051 16.087H88.3171L89.0256 16.9126L92.8878 21.4132H89.2283L85.4946 16.8441L85.324 16.6353L85.0558 16.6631C84.915 16.6778 84.6893 16.6865 84.3589 16.6865H81.6905H81.1905V17.1865ZM81.6816 8.13676H81.1816V8.63676V13.7979V14.2979H81.6816H89.6605C90.2613 14.2979 90.6901 14.0355 90.9443 13.6428C91.1772 13.2831 91.2349 12.8608 91.2349 12.5467V9.99221C91.2349 9.98584 91.2349 9.97902 91.2349 9.97177C91.2352 9.80022 91.2359 9.38775 91.089 9.00731C91.0092 8.80045 90.8764 8.57664 90.6538 8.40496C90.4254 8.22883 90.1401 8.13676 89.8102 8.13676H81.6816Z" fill="#2A2A2A" stroke="#2A2A2A"/>
<path d="M101.479 6.19995H108.251C110.651 6.19995 112.586 8.11235 112.586 10.4614V17.1518C112.586 19.5008 110.651 21.4132 108.251 21.4132H101.479C99.0791 21.4132 97.1441 19.5008 97.1441 17.1518V10.4614C97.1441 8.11235 99.0791 6.19995 101.479 6.19995ZM108.031 19.0854C109.349 19.0854 110.425 18.0338 110.425 16.7173V10.8958C110.425 9.57941 109.349 8.52776 108.031 8.52776H101.734C100.427 8.52776 99.3409 9.57791 99.3409 10.8958V16.7173C99.3409 18.0353 100.427 19.0854 101.734 19.0854H108.031Z" fill="#2A2A2A" stroke="#2A2A2A"/>
<path d="M129.922 16.1959V6.19987H132.207V17.2733C132.207 19.5541 130.333 21.4131 128.005 21.4131H120.677C118.349 21.4131 116.475 19.5541 116.475 17.2733V6.19987H118.98V16.1959C118.98 17.7991 120.293 19.0853 121.902 19.0853H127.001C128.609 19.0853 129.922 17.7991 129.922 16.1959Z" fill="#2A2A2A" stroke="#2A2A2A"/>
<path d="M139.4 13.5198C139.4 13.6762 139.409 13.8239 139.436 13.9716H139.4V13.5198Z" fill="#2A2A2A"/>
<path d="M139.436 8.61938C139.409 8.76709 139.4 8.9148 139.4 9.0712V8.61938H139.436Z" fill="#2A2A2A"/>
<path d="M139.4 13.5198C139.4 13.6762 139.409 13.8239 139.436 13.9716H139.4V13.5198Z" fill="#2A2A2A"/>
<path d="M139.436 8.61938C139.409 8.76709 139.4 8.9148 139.4 9.0712V8.61938H139.436Z" fill="#2A2A2A"/>
<path d="M139.4 16.4257H138.9V16.9257V21.4131H136.668V6.16504H148.277C149.07 6.16504 149.935 6.57715 150.614 7.23674C151.293 7.89706 151.714 8.73556 151.714 9.50548V13.2503C151.714 14.0152 151.298 14.8092 150.625 15.4265C149.952 16.0429 149.084 16.4257 148.277 16.4257H139.4ZM138.9 13.9715V14.4715H139.4H147.485C148.75 14.4715 149.781 13.4633 149.781 12.199V10.3917C149.781 9.12744 148.75 8.11923 147.485 8.11923H139.4H138.9V8.61923V13.9715Z" fill="#2A2A2A" stroke="#2A2A2A"/>
</svg>

<svg width="158" height="33" viewBox="0 0 158 33" fill="none" xmlns="http://www.w3.org/2000/svg"><path d="M4.5 21.179V6.2h2.28v14.979H4.5zM19.41 8.093h-5.858V6.2H28.5v2.04h-6.314v12.93H19.91V8.093h-.5z" fill="#2A2A2A" stroke="#2A2A2A"/><mask id="path-3-inside-1_3_15" fill="#fff"><path d="M48.128 5.7v3.38H37.367c-1.075 0-1.269.877-1.269 1.65 0 .774.432 1.295 1.313 1.295h8.806c2.59 0 2.74 2.99 2.74 4.831 0 1.842 0 5.066-2.643 5.066H33.738V18.16h10.515c1.612 0 1.374-.582 1.374-1.304 0-.72-.07-1.277-.933-1.277h-6.896c-2.642 0-4.993-1.764-4.993-5.482 0-1.686 1.567-4.319 4.377-4.319"/></mask><path d="M48.128 5.7v3.38H37.367c-1.075 0-1.269.877-1.269 1.65 0 .774.432 1.295 1.313 1.295h8.806c2.59 0 2.74 2.99 2.74 4.831 0 1.842 0 5.066-2.643 5.066H33.738V18.16h10.515c1.612 0 1.374-.582 1.374-1.304 0-.72-.07-1.277-.933-1.277h-6.896c-2.642 0-4.993-1.764-4.993-5.482 0-1.686 1.567-4.319 4.377-4.319" fill="#2A2A2A"/><path d="M48.128 9.08v1h1v-1h-1zm-14.39 12.842h-1v1h1v-1zm0-3.762v-1h-1v1h1zM47.128 5.7v3.38h2V5.7h-2zm1 2.38H37.367v2h10.761v-2zm-10.761 0c-.872 0-1.53.39-1.903 1.035-.318.55-.366 1.182-.366 1.616h2c0-.155.01-.291.031-.404a.683.683 0 01.066-.211c.008-.014.013-.018.012-.017l-.003.002-.002.001.007-.002a.592.592 0 01.158-.02v-2zm-2.269 2.65c0 .567.16 1.168.605 1.63.452.471 1.068.665 1.708.665v-2a.671.671 0 01-.23-.03.157.157 0 01-.03-.015l-.005-.005-.006-.007a.183.183 0 01-.015-.034.64.64 0 01-.027-.203h-2zm2.313 2.295h8.806v-2h-8.806v2zm8.806 0c.44 0 .705.121.888.27.198.163.374.421.515.802.292.79.336 1.832.336 2.76h2c0-.915-.03-2.289-.46-3.453-.22-.597-.568-1.201-1.126-1.657-.573-.469-1.298-.722-2.153-.722v2zm1.74 3.831c0 .956-.01 2.06-.284 2.92-.133.416-.304.695-.497.867-.172.153-.424.279-.862.279v2c.883 0 1.622-.277 2.193-.786.55-.49.874-1.132 1.072-1.752.386-1.212.377-2.64.377-3.528h-2zm-1.643 4.066H33.738v2h12.576v-2zm-11.576 1V18.16h-2v3.762h2zm-1-2.762h10.515v-2H33.738v2zm10.515 0c.448 0 .854-.039 1.202-.15.37-.12.72-.34.946-.716a1.8 1.8 0 00.238-.911 4.635 4.635 0 00-.006-.303c-.003-.09-.006-.157-.006-.224h-2c0 .114.005.223.008.303.004.088.005.142.004.187-.002.1-.017.026.05-.084a.463.463 0 01.122-.135c.037-.027.055-.03.03-.021-.061.02-.23.054-.588.054v2zm2.374-2.304c0-.324.001-.902-.266-1.389a1.63 1.63 0 00-.713-.686 2.13 2.13 0 00-.954-.202v2c.114 0 .116.02.066-.006a.36.36 0 01-.153-.145c-.02-.035-.007-.033.004.054.012.086.016.203.016.374h2zm-1.933-2.277h-6.896v2h6.896v-2zm-6.896 0c-1.1 0-2.082-.365-2.785-1.059-.695-.685-1.208-1.783-1.208-3.423h-2c0 2.077.663 3.722 1.803 4.847 1.134 1.118 2.649 1.635 4.19 1.635v-2zm-3.993-4.482c0-.575.286-1.43.895-2.142.588-.687 1.419-1.177 2.482-1.177v-2c-1.747 0-3.104.827-4.002 1.877-.877 1.026-1.375 2.33-1.375 3.442h2z" fill="#2A2A2A" mask="url(#path-3-inside-1_3_15)"/><path d="M74.198 6.191v2.32H62.562c-.771 0-1.315.224-1.578.726a1.55 1.55 0 00-.162.634 5.15 5.15 0 00-.003.37l.002.099v6.403c0 .596.066 1.144.297 1.556.122.217.292.4.518.526.225.123.474.173.733.173h9.297v-4.171h-3.31v-2.223h5.833v8.826H62.457a4.097 4.097 0 01-2.926-1.224c-.708-.707-1.04-1.517-1.04-1.994V8.88c0-.52.347-1.186 1.063-1.744.702-.547 1.71-.945 2.903-.945h11.741zm6.992 10.995v4.227h-2.62V6.2h12.174c.759 0 1.437.471 1.952 1.144.522.682.78 1.446.78 1.831v4.31a2.21 2.21 0 01-.739 1.641c-.562.513-1.569.961-3.332.961h-1.088l.709.826 3.862 4.5h-3.66l-3.733-4.569-.171-.209-.268.028a7.329 7.329 0 01-.697.023H81.19v.5zm.492-9.05h-.5v6.162h8.478c.601 0 1.03-.262 1.284-.655.233-.36.29-.782.29-1.096V9.972c.001-.172.002-.584-.145-.965a1.372 1.372 0 00-.435-.602 1.35 1.35 0 00-.844-.268h-8.128zM101.479 6.2h6.772c2.4 0 4.335 1.912 4.335 4.261v6.69c0 2.35-1.935 4.262-4.335 4.262h-6.772c-2.4 0-4.335-1.912-4.335-4.261v-6.69c0-2.35 1.935-4.262 4.335-4.262zm6.552 12.885c1.318 0 2.394-1.051 2.394-2.368v-5.821c0-1.317-1.076-2.368-2.394-2.368h-6.297c-1.307 0-2.393 1.05-2.393 2.368v5.821c0 1.318 1.086 2.368 2.393 2.368h6.297zm21.891-2.889V6.2h2.285v11.073c0 2.281-1.874 4.14-4.202 4.14h-7.328c-2.328 0-4.202-1.859-4.202-4.14V6.2h2.505v9.996c0 1.603 1.313 2.89 2.922 2.89h5.099c1.608 0 2.921-1.287 2.921-2.89z" fill="#2A2A2A" stroke="#2A2A2A"/><path d="M139.4 13.52c0 .156.009.304.036.452h-.036v-.452zm.036-4.9a2.486 2.486 0 00-.036.451V8.62h.036z" fill="#2A2A2A"/><path d="M139.4 13.52c0 .156.009.304.036.452h-.036v-.452zm.036-4.9a2.486 2.486 0 00-.036.451V8.62h.036z" fill="#2A2A2A"/><path d="M139.4 16.426h-.5v4.987h-2.232V6.165h11.609c.793 0 1.658.412 2.337 1.072.679.66 1.1 1.499 1.1 2.268v3.745c0 .765-.416 1.56-1.089 2.177-.673.616-1.541.999-2.348.999H139.4zm-.5-2.454v.5h8.585a2.28 2.28 0 002.296-2.273v-1.807a2.28 2.28 0 00-2.296-2.273H138.9v5.853z" fill="#2A2A2A" stroke="#2A2A2A"/></svg>
